src/assets/duotone/TextBlock.svg

<svg width="24" height="24" viewBox="0 0 24 24"  xmlns="http://www.w3.org/2000/svg">
<path opacity="0.4" d="M16.19 2H7.81C4.17 2 2 4.17 2 7.81V16.18C2 19.83 4.17 22 7.81 22H16.18C19.82 22 21.99 19.83 21.99 16.19V7.81C22 4.17 19.83 2 16.19 2Z" />
<path d="M17.3398 8.21002C13.9998 6.54002 10.0098 6.54002 6.66977 8.21002C6.28977 8.40002 6.13977 8.85002 6.32977 9.22002C6.45977 9.48002 6.72977 9.63002 6.99977 9.63002C7.10977 9.63002 7.22977 9.60002 7.33977 9.55002C8.56977 8.94002 9.89977 8.60002 11.2498 8.50002V16.29C11.2498 16.7 11.5898 17.04 11.9998 17.04C12.4098 17.04 12.7498 16.7 12.7498 16.29V8.50002C14.0998 8.60002 15.4298 8.94002 16.6598 9.55002C17.0298 9.73002 17.4798 9.59002 17.6698 9.21002C17.8598 8.85002 17.7098 8.40002 17.3398 8.21002Z" />
</svg>

<?xml version="1.0" encoding="UTF-8"?>
<svg width="24" height="24" viewBox="0 0 24 24" xmlns="http://www.w3.org/2000/svg">
 <path d="M16.19 2H7.81C4.17 2 2 4.17 2 7.81V16.18C2 19.83 4.17 22 7.81 22H16.18C19.82 22 21.99 19.83 21.99 16.19V7.81C22 4.17 19.83 2 16.19 2Z" opacity=".4"/>
 <path d="m17.34 8.21c-3.34-1.67-7.33-1.67-10.67 0-0.38 0.19-0.53 0.64-0.34 1.01 0.13 0.26 0.4 0.41 0.67 0.41 0.11 0 0.23-0.03 0.34-0.08 1.23-0.61 2.56-0.95 3.91-1.05v7.79c0 0.41 0.34 0.75 0.75 0.75s0.75-0.34 0.75-0.75v-7.79c1.35 0.1 2.68 0.44 3.91 1.05 0.37 0.18 0.82 0.04 1.01-0.34 0.19-0.36 0.04-0.81-0.33-1z"/>
</svg>
